symbols/web/auto_stories/materialsymbolsrounded/auto_stories_wght700fill1_48px.svg

<svg xmlns="http://www.w3.org/2000/svg" height="48" width="48"><path d="M24.1 41.4q-.45 0-.875-.1t-.775-.35q-2.15-1.4-4.525-2.225Q15.55 37.9 13 37.9q-2 0-3.9.55t-3.65 1.5q-1.6.8-3.1-.075T.85 37.25v-24q0-1.1.475-2.025Q1.8 10.3 2.75 9.85 5.1 8.7 7.675 8.15 10.25 7.6 12.9 7.6q2.95 0 5.775.75T24 10.7v26.55q2.55-1.65 5.325-2.575Q32.1 33.75 35 33.75q1.8 0 3.925.4T43 35.65V8.9q.6.25 1.15.475.55.225 1.15.475.95.45 1.4 1.375.45.925.45 2.025v24.6q0 1.55-1.5 2.25t-3.1-.15q-1.75-.95-3.65-1.5T35 37.9q-2.5 0-4.8.825t-4.4 2.225q-.35.25-.775.35-.425.1-.925.1Zm4.95-10.65q-.6.5-1.325.2T27 29.85V14.2q0-.15.3-.8L37.9 2.6q.55-.55 1.325-.25.775.3.775 1.1V20.5q0 .15-.35.85Z"/></svg>

<svg xmlns="http://www.w3.org/2000/svg" height="48" width="48"><path d="M24.1 41.4Q23.65 41.4 23.225 41.3Q22.8 41.2 22.45 40.95Q20.3 39.55 17.925 38.725Q15.55 37.9 13 37.9Q11 37.9 9.1 38.45Q7.2 39 5.45 39.95Q3.85 40.75 2.35 39.85Q0.85 38.95 0.85 37.25V13.25Q0.85 12.15 1.325 11.225Q1.8 10.3 2.75 9.85Q5.1 8.7 7.675 8.15Q10.25 7.6 12.9 7.6Q15.85 7.6 18.675 8.35Q21.5 9.1 24 10.7V37.25Q26.55 35.6 29.35 34.675Q32.15 33.75 35 33.75Q36.8 33.75 38.925 34.15Q41.05 34.55 43 35.65Q43 35.65 43 35.65Q43 35.65 43 35.65V8.9Q43.6 9.15 44.15 9.375Q44.7 9.6 45.3 9.85Q46.25 10.3 46.7 11.25Q47.15 12.2 47.15 13.25V37.85Q47.15 39.4 45.65 40.1Q44.15 40.8 42.55 39.95Q40.8 39 38.9 38.45Q37 37.9 35 37.9Q32.5 37.9 30.2 38.725Q27.9 39.55 25.8 40.95Q25.45 41.2 25 41.3Q24.55 41.4 24.1 41.4ZM29.05 30.75Q28.45 31.25 27.725 30.95Q27 30.65 27 29.85V14.2Q27 14.05 27.3 13.4L37.9 2.6Q38.45 2.05 39.225 2.35Q40 2.65 40 3.45V20.5Q40 20.65 39.65 21.35ZM19.85 35.2V13.3Q18.4 12.5 16.475 12.125Q14.55 11.75 13 11.75Q10.65 11.75 8.625 12.2Q6.6 12.65 5 13.35Q5 13.35 5 13.35Q5 13.35 5 13.35V35.6Q5 35.6 5 35.6Q5 35.6 5 35.6Q6.75 34.7 8.775 34.225Q10.8 33.75 13.05 33.75Q15 33.75 16.725 34.125Q18.45 34.5 19.85 35.2ZM19.85 35.2Q18.1 34.5 16.3 34.15Q14.5 33.8 12.6 33.8Q10.7 33.8 8.875 34.15Q7.05 34.5 5.35 35.2Q5.35 35.2 5.35 35.2Q5.35 35.2 5.35 35.2V13.2Q5.35 13.2 5.35 13.2Q5.35 13.2 5.35 13.2Q7 12.5 8.8 12.1Q10.6 11.7 12.6 11.7Q14.4 11.7 16.275 12.1Q18.15 12.5 19.85 13.25Z"/></svg>
